X: 21831
Q: "Slow"
U: Q=!diminuendo(!
U: q=!diminuendo)!
M: 6/8
L: 1/8
K: Bb
V: 1 staves=2
!p!F |\
(d>c)B B(GF) | (FG)B c2F |\
({Bc}d>c)B B(GF) | FG(B {dc}B2) :|
|: (d/e/) |\
!f!f2g fdB | f2{a}g fdB |\
fdB fdB | HQg>f(e/qd/) HQd{ced}qHc !p!F |\
({Bc}d>c)B B(GF) | (FG)(B {dc}B2)  :|
V: 2
!p!(F/E/) |\
(DF)B (AG)A | (Bd)B (FD)F |\
(F>E)D G(ED) | (DE) (G/B/) [A2F2] (F/E/) |\
(DF)B (AG)A | (Bd)B (FD)F |
({DE}F>E)D G(ED) | (DE)(D {FE}D2) :|
|: (B/c/) |\
!f!d2e dBD | d2e dBD |\
dBD dBD | He>d(c/B/) HB{AcB}HA !p!F/E/ |
(DF)B (AG)A | B(d/c/)B FDF | ({DE}F>E)D G(ED) | (DE)(D {FE}D2) :|


